app/client/src/assets/icons/blueprintjs/16px/intersection.svg

<svg xmlns="http://www.w3.org/2000/svg" xml:space="preserve" viewBox="0 0 16 16"><path fill-rule="evenodd" d="M10 3c-.92 0-1.76.26-2.5.69C6.76 3.26 5.92 3 5 3 2.24 3 0 5.24 0 8s2.24 5 5 5c.92 0 1.76-.26 2.5-.69.74.43 1.58.69 2.5.69 2.76 0 5-2.24 5-5s-2.24-5-5-5zm-4.1 7.85c-.29.09-.59.15-.9.15-1.66 0-3-1.34-3-3s1.34-3 3-3c.31 0 .61.06.9.15C5.33 5.96 5 6.94 5 8s.33 2.04.9 2.85zM10 11c-.31 0-.61-.06-.9-.15.57-.81.9-1.79.9-2.85s-.33-2.04-.9-2.85c.29-.09.59-.15.9-.15 1.66 0 3 1.34 3 3s-1.34 3-3 3z" clip-rule="evenodd"/></svg>

<?xml version="1.0" encoding="utf-8"?>
<!-- Generator: Adobe Illustrator 18.0.0, SVG Export Plug-In . SVG Version: 6.00 Build 0)  -->
<svg version="1.1" id="Layer_1" xmlns="http://www.w3.org/2000/svg" xmlns:xlink="http://www.w3.org/1999/xlink" x="0px" y="0px"
	 viewBox="0 0 16 16" enable-background="new 0 0 16 16" xml:space="preserve">
<g id="intersection_1_">
	<g>
		<path fill-rule="evenodd" clip-rule="evenodd" d="M10,3C9.08,3,8.24,3.26,7.5,3.69C6.76,3.26,5.92,3,5,3C2.24,3,0,5.24,0,8
			s2.24,5,5,5c0.92,0,1.76-0.26,2.5-0.69C8.24,12.74,9.08,13,10,13c2.76,0,5-2.24,5-5S12.76,3,10,3z M5.9,10.85
			C5.61,10.94,5.31,11,5,11c-1.66,0-3-1.34-3-3s1.34-3,3-3c0.31,0,0.61,0.06,0.9,0.15C5.33,5.96,5,6.94,5,8
			C5,9.06,5.33,10.04,5.9,10.85z M10,11c-0.31,0-0.61-0.06-0.9-0.15C9.67,10.04,10,9.06,10,8c0-1.06-0.33-2.04-0.9-2.85
			C9.39,5.06,9.69,5,10,5c1.66,0,3,1.34,3,3S11.66,11,10,11z"/>
	</g>
</g>
</svg>
